X: 1
T: Humours Of Lewisham, The
M: 4/4
L: 1/8
R: hornpipe
K: Dmaj
|:de|fdBA Bcde|fdBA BcdB|ABAc dcdB|ABAc dcde|
fdBA Bcde|fdBA BcdB|ABAc dFGB|(3ABA FA d2:|
|:(3ABc|dAFA GFEA|BABc d2cd|eAfA eAcA|BABc d2FG|
AFdB Afde|fgec d2cB|AFDF Bgec|d2 f2 d2:|
